X: 21122
T: SAXE COBURG WALTZ
Q: "With spirit."
%R: waltz
B: W. Hamilton "Universal Tune-Book" Vol. 2 Glasgow 1846 p.112 #2
S: http://s3-eu-west-1.amazonaws.com/itma.dl.printmaterial/book_pdfs/hamiltonvol2web.pdf
Z: 2016 John Chambers <jc:trillian.mit.edu>
M: 3/4
L: 1/8
K: G
% - - - - - - - - - - - - - - - - - - - - - - - - -
|:\
B2B2B2 | d>cc>AA>F | F>AA>cc2 | B>dd>gg2 |\
B2B2B2 | d>cc>AA>F |F>AA>cc>A | G4 z2 :|\
|:\
d4 A>d | f4 d>f | g2e2g2 | f2a2f2 |
f4 A>d | fdAdfd | ge^cege | d4 z2 :|\
|:\
(d^cdcdc) | dcBAG2 | AGFED2 | GABcd2 |\
(e^deded) | edcBAG | FGABcA | G4 z2 :|
% - - - - - - - - - - - - - - - - - - - - - - - - -

%%sep 1 1 500
%%sep 1 1 500

